X:1
T:A minor Oliver Brownson, 1783
T:Joseph Hart, 1759 Amended by Augustus Toplady, 1776 87. 87. 47.
T:Invitation
T:Transcribed from Select Harmony, 1783.
%%score [ 1 2 3 4 ]
L:1/8
M:4/4
K:C
V:1 treble nm="Treble" snm="Tr."
V:2 treble nm="Counter" snm="C."
V:3 treble-8 nm="Tenor" snm="T."
V:4 bass nm="Bass" snm="B."
V:1
 c4 B4 | A2 A2 G2 A2 | B2 B2 d2 d2 | B2 G2 A2 A2 | B6 B2 | B2 B2 B2 A2 | c2 B2 G2 B2 | %7
w: 1.~Come, ye|sin- ners, poor and|wretch- ed, Weak and|woun- ded, sick and|sore! Je-|sus rea- dy stands|to save you, Full|
w: 2.~Ho! ye|nee- dy, come and|wel- come, God's free|boun- ty glo- ri-|fy. True|be- lief, and true|re- pen- tance, Eve-|
 A2 A2 A2 G2 | G2 G6 |: z2 G2 G2 A2 | A2 z2 B2 B2 | e2 d2 c2 B2 | A8 :| %13
w: of pi- ty, love,|and power.|He is a-|ble, He is|wil- ling, doubt no|more!|
w: ry grace that brings|us nigh.|With- out mo-|ney, Come to|Je- sus Christ and|buy.|
V:2
 E4 E4 | E2 F2 D2 D2 | E2 E2 F2 D2 | D2 G2 E2 E2 | E6 G2 | G2 G2 G2 E2 | E2 E2 E2 E2 | %7
w: 3.~Let not|con- science let you|lin- ger, Nor of|fit- ness fond- ly|dream; All|the fit- ness He|re- quir- eth Is|
w: 4.~Come ye|wea- ry, hea- vy|la- den, Bruised and|man- gled by the|fall; If|you tar- ry till|you're bet- ter, You|
 E2 F2 F2 D2 | D2 E6 |: z2 E2 E2 C2 | C2 z2 G2 G2 | G2 F2 E2 E2 | E8 :| %13
w: to feel your need|of Him.|This He gives|you: 'Tis the|Spi- rit's ri- sing|beam.|
w: will ne- ver come|at all.|Not the right-|eous: Sin- ners|Je- sus came to|call.|
V:3
 e4 (e3 d) | c2 c2 B2 A2 | G2 E2 A2 Bc | d2 B2 c2 c2 | B6 e2 | e2 e2 e2 c2 | A2 B2 B2 ed | %7
w: 5.~View Him *|grov- eling in the|gar- den, Lo! your *|Ma- ker pro- strate|lies! On|the bloo- dy tree|be- hold Him: Hear *|
w: 6.~Lo! th'in- *|car- nate God a-|scen- ded, Pleads the *|mer- it of His|blood; Ven-|ture on Him, ven-|ture whol- ly; Let *|
 c2 d2 c2 B2 | B2 c6 |: z2 B2 e2 e2 | e2 z2 e2 d2 | c2 A2 G3 G | A8 :| %13
w: Him cry, be- fore|He dies:|"It is fin-|ished!" Sin- ner,|will this not suf-|fice?|
w: no oth- er trust|in- trude.|None but Je-|sus Can do|help- less sin- ners|good.|
V:4
"^_______________________________________\nEdited by B. C. Johnston, 2015.\nMeasure 5, \nBass\n: note changed from D to E.\nPhrases moved right or left to balance size of phrases." A,4 E,4 | %1
w: 7.~Saints and|
 A,G, F,2 G,2 F,2 | E,2 E,2 D,2 D,2 | D,2 E,2 C,2 A,,2 | E,6 E,2 | E,2 E,2 E,2 A,,2 | %6
w: an- * gels, joined in|con- cert, Sing the|prai- ses of the|Lamb; While|the bliss- ful seats|
 A,,2 E,2 E,2 E,2 | A,2 F,2 F,2 G,2 | G,2 [C,C]6 |: z2 E,2 E,2 A,2 | A,2 z2 G,2 G,2 | %11
w: of hea- ven Sweet-|ly e- cho with|His name.|Hal- le- lu-|jah! Sin- ners|
 C,2 D,2 E,3 E, | A,,8 :| %13
w: here may sing the|same.|

